X:61
T: Wang yanan, An Yan'an die Blicke schweifen lassen)
N: C0078
O: China, bei Shanxi, Qinyuan
S: I, 300]
N: neues Volkslied. Die meng jia n} wird hier als "typischste
N: Tonart besonders in Nordchina bezeichnet.
R: Xiaodiao, Shidiao, Mengjiangn diao, Shuzhuangtai. Geming lishi minge]
M: 2/4
L: 1/16
K: G
G2G2G2E2 | d4B2d2 | e2g2d2c2 | B2BFA4
B2ABd4 | g2B2A2G2 | E2DEF2E2 | D8
G2D2G2A2 | B2B2d2B2 | A2G2G2D2 | E8
e3gB2d2 | e2g2d2c2 | B2ABG2A2 | d3BABE2 | D8

